X:1
T:William Byrd ~1540 - 1623
T:Tui sunt cæli
%%score [ 1 2 3 4 ]
L:1/8
Q:1/4=200
M:4/4
K:C
V:1 treble nm="Cantus primus"
V:2 treble nm="Cantus secundus"
V:3 treble nm="Tenor"
V:4 treble nm="Bassus"
V:1
"^Q""^:" x2 x2 ||[K:F] D8 E4 ^F4 | G2 A2 B2 G2 A8 | z4 G4 d4 c2 B2 | A4 D4 z8 | z4 A4 B4 A2 G2 | %6
w: |Tu- i sunt|cæ * * * li,|et tu- a est|ter- ra,||
w: |||||et tu- a est|
 ^F4 G4 z4 z2 G,2 |[M:4/2] D3 C A,4 =B,2 C2 D4 x2 | G,8 z8 x2 | z4 B6 c2 d4 | ^c8 d8 | %11
w: * * est|ter * * * * *|ra,|or- bem ter-|ra- rum,|
w: ter- ra, *|||||
"^(  )" c4 B2 A2 G3 G A4 | B8 G4 c6 | B2 B6 A2 A8 | G4 A8 x4 | z4 A4 B6 B2 | A8 A6 G2 | %17
w: et ple- ni- tu~- ~di~~- ~~nem|e- jus tu|fun- da- * *|* sti,|ju- sti- ti-|a et ju-|
w: ||||||
 F6 F2 F4 F8 | E4 D6 D2 x4 | E8 F4 G4 x2 | A6 B2 A4 G4 x4 | C2 G3 F F4 ED E4 x6 | F8 A4 B4 | %23
w: di- ti- um, et|ju- di- ti-|um, pre- pa-|ra- ti- o se-|dis tu- * * * * *|ae, pre- pa|
w: ||||||
 c6 d2 c4 B6 x2 | A2 A8 G4 A8 | G4 G4 A6 G2 x4 | F4 D4 z8 x2 | E4 F4 x8 | G6 A2 G4 F8 | %29
w: ra- ti- o se-|dis tu- * ae,|se- dis tu- *|* ae,|pre- pa-|ra- ti- o se-|
w: ||||||
 E4 D2 C2 D2 E2 F2 G2 x2 | A6 G2 E4"^-" x16 x2 |] x16 |] %32
w: dis tu * * * * *|||
w: |||
V:2
"^Q""^:" x2 x2 ||[K:F] z16 | D8 E4 ^F4 | G2 A2 B2 A2 G8 | z4 A4 B4 A2 G2 | ^F8 G8 | %6
w: ||Tu- i sunt|cæ * * * li|et tu- a est|ter- ra,|
w: ||||||
 z4 B4 d4 c2 B2 |[M:4/2] A8 D8 x2 | z8 z4 A6 | A2 G4 B8 x2 | A16 | A4 D2 F2 E3 E F4 | %12
w: ||or-|bem ter- ra-|rum,|et ple- ni- tu~- ~di~~- ~~nem|
w: et tu- a est|ter- ra,|||||
 F4 G2 F2 E8 x2 | F12 F4 x2 | D6 E2 ^F8 | z4 ^F4 G6 G2 | ^F4 d4 ^c6 c2 | d4 B8 A4 x4 | G12 G4 | %19
w: e- * * jus|tu fun-|da- * sti,|ju- sti- ti-|a, ju- sti- ti-|a et ju-|di- ti-|
w: |||||||
 G4 A4 B4 c6 | d2 c2 B2 c2 A2 c6 x4 | B2 A4 G4 c2 B2 A8 | F4 G4 x8 | A6 B2 A4 G2 F2 x4 | %24
w: um, pre- pa- ra-|ti- o se * * *|* dis tu- * * ae,|||
w: |||pre- pa-|ra- ti- o se- dis|
 E4 A,4 z4 D4 x6 | E4 F6 G2 E8 | F8 G8 x2 | A6 G2 F2 D2 x4 | E8 z8 x4 | z8 F6 G2 x2 | %30
w: * * pre-|pa- ra- ti- o|se- dis|tu- * * *|ae,|se- dis|
w: tu- ae, *||||||
 A4 F4 E4 A4 x14 |]"^-" x16 |] %32
w: tu- * * *||
w: ||
V:3
"^Q""^:" x2 x2 ||[K:F][K:treble-8] z16 | G8 c4 d4 | d6 c2 d4 e4 | %4
w: ||Tu- i sunt|cæ- * * *|
w: ||||
 ^f4 !courtesy!^f4 g4"^(  )" =f2 e2 | d4 A2 d4 ^c=B !courtesy!^c4 | d6 G2 B4 A2 G2 | %7
w: li et tu- a est|ter- ra, ter- * * *|ra, et tu- a est|
w: |||
[M:4/2][K:treble-8] ^F8 G4 B6 | c2 d4 ^c8 d4 | d4 g6 f2 x4 | e8 ^f8 |"^(  )" f4 B2 c2 c3 c c4 | %12
w: ter- ra, or-|bem~ ~ter- ra- rum,|ter- ra- *|* rum,|et ple- ni- tu~- ~di~~- ~~nem|
w: |||||
 d8 c8 x2 | F6 G2 A2 F2 c4 x2 | B8 A8 | z4 d4 G6 G2 | d4 f4 e6 e2 | d8 z4 d6 x2 | c2 c8 =B4 x2 | %19
w: e- jus|tu fun- da * *|* sti,|ju- sti- ti-|a, ju- sti- ti-|a et|ju- di- ti-|
w: |||||||
 c8 d4 e4 x2 | f6 g2 f4 e8 | f4 c8 F8 x2 | c4 d4 x8 | f6 f2 f4 d8 | ^c4 d8 c4 x6 | %25
w: um, pre- pa-|ra- ti- o se-|dis tu- ae,||||
w: |||pre- pa-|ra- ti- o se-|dis tu- ae,|
 A4 B4"^(  )" c6 d2 x4 | c4 d4 d4 e6 | d2 c4 A4 x6 | c4 E8 F4 x4 | G8 F4 f6 | e2 d8 ^c4"^-" x16 |] %31
w: pre- pa- ra- ti-|o se- dis tu-||ae, se- dis|tu- ae, se-|dis tu- *|
w: ||||||
 x16 |] %32
w: |
w: |
V:4
"^Q""^:""^Q" x2 x2 ||[K:F][K:bass] z16 | z16 | G,,8 B,,4 C,4 | D,8 G,8 | z4 D,4 G,4 F,2 E,2 | %6
w: |||Tu- i sunt|cæ- li|et tu- a est|
w: ||||||
 D,4 G,,4 G,,4 C,4 |[M:4/2] D,8 z4 G,6 | A,2 B,4 A,8 D,4 | G,6 G,2 G,,4 x4 | A,,8 D,8 | %11
w: ter- ra, ter- *|ra, or-|bem ter- ra- rum,|||
w: |||or- bem ter-|ra- rum,|
"^(  )" F,4 G,2 F,2 C,3 C, F,4 | B,,8 C,8 x2 | D,6 E,2 F,8 x2 | G,8 D,8 | z8 z4 G,4 | D,6 D,2 A,8 | %17
w: et ple- ni- tu~- ~di~~- ~~nem|e- jus|tu fun- da-|* sti,|ju-|sti- ti- a|
w: ||||||
 B,8 F,8 x4 | G,12 G,4 | C,8 z8 x2 | z16 x4 | z8 z4 C,4 x6 | D,4 F,6 A,2 G,4 | F,12 G,4 x4 | %24
w: et ju-|di- ti-|um,||pre-|pa- ra- ti- o|se- dis|
w: |||||||
 A,8 B,8 x6 | A,8 z8 x4 | A,,8 B,,8 x2 | C,12 D,4 | C,8 B,,4 A,,4 x4 | G,,6 A,,2 B,,8 x2 | %30
w: tu- *|ae,|pre- pa-|ra- ti-|o se- dis|tu- * *|
w: ||||||
 A,,16 x14 |]"^-" x16 |] %32
w: ||
w: ||

